X:7593
T:Tom Fowlers Hornpipe
O:england
R:Hornpipe
M:4/4
L:1/8
K:G
Bc|\
dcBA Ggfg | e4 d4 | cdcB ABAG | F4 E4 |\
DEFG A2B2 | c2de d2c2 | BAGA D2F2 | G6:|
|:d2|\
g2bg e2ag | f4 d2ef | g3f edcB | ABAG F3E |\
DEFG A2B2 | c2de d2c2 | BAGA D2F2 | G6 :|


